X: 29319
T: New Year's Eve
R: reel
M: 4/4
K: Gmajor
A|FED def|dDD D2E|FED def|eEE E2A|
FED def|Adg ~f2e|dcB ABc|dDD D2|

